public/assets/routes_avatar/billPool.svg

<?xml version="1.0" encoding="UTF-8"?>
<svg width="60px" height="60px" viewBox="0 0 60 60" version="1.1" xmlns="http://www.w3.org/2000/svg" xmlns:xlink="http://www.w3.org/1999/xlink">
    <!-- Generator: Sketch 49.3 (51167) - http://www.bohemiancoding.com/sketch -->
    <title>billPool </title>
    <desc>Created with Sketch.</desc>
    <defs>
        <rect id="path-1" x="0" y="4" width="30" height="22" rx="2"></rect>
    </defs>
    <g id="icon" stroke="none" stroke-width="1" fill="none" fill-rule="evenodd">
        <g id="billPool-">
            <circle id="Oval-Copy" fill="#F79E45" cx="30" cy="30" r="30"></circle>
            <g id="Group-71" transform="translate(15.000000, 16.000000)">
                <g id="Rectangle-21">
                    <use fill="#F79E45" fill-rule="evenodd" xlink:href="#path-1"></use>
                    <rect stroke="#FFFFFF" stroke-width="1.5" x="0.75" y="4.75" width="28.5" height="20.5" rx="2"></rect>
                </g>
                <circle id="Oval-6" fill="#F79E45" cx="25" cy="22" r="6"></circle>
                <path d="M4,9 L16,9 L16,10.2059193 L12.1026786,10.2059193 L12.1026786,10.9830673 L15.0758929,10.9830673 L15.0758929,14.198852 L4.92410714,14.198852 L4.92410714,10.9830673 L7.89732143,10.9830673 L7.89732143,10.2059193 L4,10.2059193 L4,9 Z M10.7767857,10.9830673 L10.7767857,10.2059193 L9.22321429,10.2059193 L9.22321429,10.9830673 L10.7767857,10.9830673 Z M13.7366071,13.0733274 L13.7366071,12.1085919 L12.1026786,12.1085919 L12.1026786,13.0733274 L13.7366071,13.0733274 Z M10.7767857,13.0733274 L10.7767857,12.1085919 L9.22321429,12.1085919 L9.22321429,13.0733274 L10.7767857,13.0733274 Z M7.89732143,13.0733274 L7.89732143,12.1085919 L6.26339286,12.1085919 L6.26339286,13.0733274 L7.89732143,13.0733274 Z M5.55357143,14.8956054 L14.5401786,14.8956054 L14.5401786,16.0479283 L5.55357143,16.0479283 L5.55357143,14.8956054 Z M4.21428571,16.6776861 L15.7857143,16.6776861 L15.7857143,17.8702063 L10.8169643,17.8702063 L10.8169643,19.5852915 C10.8169643,20.4964305 10.3482143,20.952 9.42410714,20.952 L8.19196429,20.952 L7.91071429,19.7192826 C8.28571429,19.7594799 8.64732143,19.7862781 8.98214286,19.7862781 C9.30357143,19.7862781 9.47767857,19.6120897 9.47767857,19.2771121 L9.47767857,17.8702063 L4.21428571,17.8702063 L4.21428571,16.6776861 Z M12.90625,18.0577938 C14.0982143,18.6741525 15.1026786,19.2771121 15.9330357,19.8800718 L14.9553571,20.8582063 C14.2589286,20.2686458 13.28125,19.6254888 11.9955357,18.9421346 L12.90625,18.0577938 Z M7.36160714,18.084592 L8.25892857,18.9019373 C7.375,19.652287 6.29017857,20.295444 5.00446429,20.8582063 L4.16071429,19.7594799 C5.43303571,19.2771121 6.50446429,18.7277489 7.36160714,18.084592 Z" id="票" fill="#FFFFFF"></path>
                <rect id="Rectangle-22" fill="#FFFFFF" x="19" y="9" width="8" height="1.5"></rect>
                <rect id="Rectangle-22-Copy" fill="#FFFFFF" x="19" y="12" width="8" height="1.5"></rect>
                <rect id="Rectangle-23" fill="#FFFFFF" x="5" y="4" width="20" height="1.5" rx="0.75"></rect>
                <rect id="Rectangle-23-Copy" fill="#FFFFFF" x="2" y="0" width="26" height="2" rx="1"></rect>
                <g id="Group-72" transform="translate(21.000000, 18.000000)">
                    <path d="M4.5,9 C2.01471863,9 0,6.98528137 0,4.5 C0,2.01471863 2.01471863,0 4.5,0 C6.98528137,0 9,2.01471863 9,4.5 C9,6.98528137 6.98528137,9 4.5,9 Z M6.98797493,6.31416913 C7.20335712,6.29332081 7.42603463,6.36537446 7.59099026,6.53033009 L9.35875721,8.29809704 C9.65165043,8.59099026 9.65165043,9.06586399 9.35875721,9.35875721 C9.06586399,9.65165043 8.59099026,9.65165043 8.29809704,9.35875721 L6.53033009,7.59099026 C6.36537446,7.42603463 6.29332081,7.20335712 6.31416913,6.98797493 C5.80538335,7.35960321 5.17830696,7.57894737 4.5,7.57894737 C2.79954432,7.57894737 1.42105263,6.20045568 1.42105263,4.5 C1.42105263,2.79954432 2.79954432,1.42105263 4.5,1.42105263 C6.20045568,1.42105263 7.57894737,2.79954432 7.57894737,4.5 C7.57894737,5.17830696 7.35960321,5.80538335 6.98797493,6.31416913 Z" id="Combined-Shape" fill="#FFFFFF" fill-rule="nonzero"></path>
                    <circle id="Oval-18" fill="#F79E45" cx="4.5" cy="4.5" r="3.5"></circle>
                </g>
            </g>
        </g>
    </g>
</svg>

<svg width="60" height="60" xmlns="http://www.w3.org/2000/svg" xmlns:xlink="http://www.w3.org/1999/xlink"><defs><rect id="a" x="0" y="4" width="30" height="22" rx="2"/></defs><g fill="none" fill-rule="evenodd"><circle fill="#F79E45" cx="30" cy="30" r="30"/><g transform="translate(15 16)"><use fill="#F79E45" xlink:href="#a"/><rect stroke="#FFF" stroke-width="1.5" x=".75" y="4.75" width="28.5" height="20.5" rx="2"/><circle fill="#F79E45" cx="25" cy="22" r="6"/><path d="M4 9h12v1.206h-3.897v.777h2.973V14.2H4.924v-3.216h2.973v-.777H4V9zm6.777 1.983v-.777H9.223v.777h1.554zm2.96 2.09v-.964h-1.634v.964h1.634zm-2.96 0v-.964H9.223v.964h1.554zm-2.88 0v-.964H6.263v.964h1.634zm-2.343 1.823h8.986v1.152H5.554v-1.152zm-1.34 1.782h11.572v1.192h-4.969v1.715c0 .911-.469 1.367-1.393 1.367H8.192l-.281-1.233c.375.04.736.067 1.071.067.322 0 .496-.174.496-.509V17.87H4.214v-1.192zm8.692 1.38c1.192.616 2.197 1.22 3.027 1.822l-.978.978c-.696-.59-1.674-1.233-2.96-1.916l.911-.884zm-5.544.027l.897.817c-.884.75-1.969 1.393-3.255 1.956l-.843-1.099c1.272-.482 2.343-1.031 3.2-1.674zM19 9h8v1.5h-8zM19 12h8v1.5h-8z" fill="#FFF"/><rect fill="#FFF" x="5" y="4" width="20" height="1.5" rx=".75"/><rect fill="#FFF" x="2" width="26" height="2" rx="1"/><g transform="translate(21 18)"><path d="M4.5 9a4.5 4.5 0 1 1 0-9 4.5 4.5 0 0 1 0 9zm2.488-2.686a.748.748 0 0 1 .603.216l1.768 1.768a.75.75 0 1 1-1.06 1.06L6.53 7.592a.748.748 0 0 1-.216-.603 3.079 3.079 0 1 1 .674-.674z" fill="#FFF" fill-rule="nonzero"/><circle fill="#F79E45" cx="4.5" cy="4.5" r="3.5"/></g></g></g></svg>
